X:64
T:64 Jack's Ramble
C:Welch MS
I:abc2nwc
M:6/8
L:1/8
K:D
D|FDF AFA|d2d d2D|FDF AGF|E2E E2D|FDF AFA|d2d d2f|agf gfe|d2d d2:|
a|afd gec|def gfe|fag fed|e2e e2a|bag agf|e/2f/2ge cBA|Bgf edc|d2d d2:|

